X:1
T:Trosaskräcken
T:Schottis efter Arvid Pettersson
R:Schottis
O:Fagerhult, Vagnhärad, Södermanland
N:utlärd av Ingemar Skoglund
N:Från Stefan Lindén
S:Arvid Pettersson
S:Ingemar Skoglund
M:4/4
L:1/8
K:G
b|"G"b>a ag g>f fe|"D7"e>d dB "Am"c2 c2|"D7"C>F Ad f2 f2|"G"D>G Bd g2 (gb)|
"G"b>a ag g>f fe|"D7"e>d dB "Am"c2 c2|"D7"C>F Ad (f/g/f) (ef)|"G"g2 g2 g3:|
|:B|"G"B>D DB B>D Dc|"C"c>E Ec c>E Eg|"D7"f>e ed d>c BA|"G"G2 (BG) D3 B|
|"G"B>D DB B>D Dc|"C"c>E Ec c>E Eg|"D7"f>e ed d>c BA|"G"G2 B2 G3:|

